src/images/Logo.svg

<svg width="200" height="56" viewBox="0 0 200 56" fill="none" xmlns="http://www.w3.org/2000/svg">
<path d="M70.3945 27.3613V28.6416C70.3945 30.695 70.1162 32.5381 69.5596 34.1709C69.0029 35.8037 68.2174 37.1953 67.2031 38.3457C66.1888 39.4837 64.9766 40.3558 63.5664 40.9619C62.1686 41.568 60.6162 41.8711 58.9092 41.8711C57.2145 41.8711 55.6621 41.568 54.252 40.9619C52.8542 40.3558 51.6419 39.4837 50.6152 38.3457C49.5885 37.1953 48.7907 35.8037 48.2217 34.1709C47.665 32.5381 47.3867 30.695 47.3867 28.6416V27.3613C47.3867 25.2956 47.665 23.4525 48.2217 21.832C48.7783 20.1992 49.5638 18.8076 50.5781 17.6572C51.6048 16.5069 52.8171 15.6286 54.2148 15.0225C55.625 14.4164 57.1774 14.1133 58.8721 14.1133C60.5791 14.1133 62.1315 14.4164 63.5293 15.0225C64.9395 15.6286 66.1517 16.5069 67.166 17.6572C68.1927 18.8076 68.9844 20.1992 69.541 21.832C70.11 23.4525 70.3945 25.2956 70.3945 27.3613ZM64.7725 28.6416V27.3242C64.7725 25.8893 64.6426 24.6276 64.3828 23.5391C64.123 22.4505 63.7396 21.5352 63.2324 20.793C62.7253 20.0508 62.1068 19.4942 61.377 19.1231C60.6471 18.7396 59.8122 18.5479 58.8721 18.5479C57.932 18.5479 57.097 18.7396 56.3672 19.1231C55.6497 19.4942 55.0374 20.0508 54.5303 20.793C54.0355 21.5352 53.6582 22.4505 53.3984 23.5391C53.1387 24.6276 53.0088 25.8893 53.0088 27.3242V28.6416C53.0088 30.0641 53.1387 31.3259 53.3984 32.4268C53.6582 33.5153 54.0417 34.4369 54.5488 35.1914C55.056 35.9336 55.6745 36.4964 56.4043 36.8799C57.1341 37.2634 57.9691 37.4551 58.9092 37.4551C59.8493 37.4551 60.6842 37.2634 61.4141 36.8799C62.1439 36.4964 62.7562 35.9336 63.251 35.1914C63.7458 34.4369 64.123 33.5153 64.3828 32.4268C64.6426 31.3259 64.7725 30.0641 64.7725 28.6416ZM79.4121 25.8027V41.5H74.0684V21.4238H79.0967L79.4121 25.8027ZM85.4609 21.294L85.3682 26.2481C85.1084 26.211 84.793 26.18 84.4219 26.1553C84.0632 26.1182 83.7354 26.0996 83.4385 26.0996C82.6839 26.0996 82.0283 26.1986 81.4717 26.3965C80.9274 26.582 80.4697 26.8604 80.0986 27.2315C79.7399 27.6026 79.4678 28.0541 79.2822 28.586C79.109 29.1179 79.0101 29.724 78.9854 30.4043L77.9092 30.0703C77.9092 28.7715 78.0391 27.5778 78.2988 26.4893C78.5586 25.3884 78.9359 24.4297 79.4307 23.6133C79.9378 22.7969 80.5563 22.166 81.2861 21.7207C82.016 21.2754 82.8509 21.0527 83.791 21.0527C84.0879 21.0527 84.391 21.0775 84.7002 21.127C85.0094 21.1641 85.263 21.2197 85.4609 21.294ZM100.323 21.4238H105.166V40.832C105.166 42.6628 104.758 44.2152 103.941 45.4893C103.137 46.7757 102.012 47.7468 100.564 48.4024C99.1172 49.0703 97.4349 49.4043 95.5176 49.4043C94.6764 49.4043 93.7858 49.293 92.8457 49.0703C91.918 48.8477 91.0273 48.5013 90.1738 48.0313C89.3327 47.5612 88.6276 46.9675 88.0586 46.25L90.415 43.0957C91.0335 43.8132 91.751 44.3698 92.5674 44.7656C93.3838 45.1738 94.2868 45.3779 95.2764 45.3779C96.2412 45.3779 97.0576 45.1986 97.7256 44.8399C98.3936 44.4935 98.9069 43.9802 99.2656 43.2998C99.6243 42.6319 99.8037 41.8216 99.8037 40.8692V26.0625L100.323 21.4238ZM86.8154 31.7031V31.3135C86.8154 29.7796 87.001 28.388 87.3721 27.1387C87.7555 25.877 88.2936 24.7946 88.9863 23.8916C89.6914 22.9886 90.5449 22.2897 91.5469 21.7949C92.5488 21.3001 93.6807 21.0527 94.9424 21.0527C96.2783 21.0527 97.3978 21.3001 98.3008 21.7949C99.2038 22.2897 99.946 22.9948 100.527 23.9102C101.109 24.8132 101.56 25.8832 101.882 27.1201C102.216 28.3447 102.476 29.6869 102.661 31.1465V32C102.476 33.3978 102.197 34.6966 101.826 35.8965C101.455 37.0964 100.966 38.1478 100.36 39.0508C99.7542 39.9414 98.9997 40.6341 98.0967 41.1289C97.2061 41.6237 96.1423 41.8711 94.9053 41.8711C93.6683 41.8711 92.5488 41.6175 91.5469 41.1104C90.5573 40.6032 89.71 39.8919 89.0049 38.9766C88.2998 38.0612 87.7555 36.985 87.3721 35.7481C87.001 34.5111 86.8154 33.1628 86.8154 31.7031ZM92.1592 31.3135V31.7031C92.1592 32.5319 92.2396 33.305 92.4004 34.0225C92.5612 34.7399 92.8086 35.377 93.1426 35.9336C93.4889 36.4779 93.9157 36.9046 94.4229 37.2139C94.9424 37.5108 95.5547 37.6592 96.2598 37.6592C97.237 37.6592 98.0348 37.4551 98.6533 37.0469C99.2718 36.6263 99.7357 36.0511 100.045 35.3213C100.354 34.5915 100.534 33.7503 100.583 32.7979V30.3672C100.558 29.5879 100.453 28.889 100.268 28.2705C100.082 27.6397 99.8223 27.1016 99.4883 26.6563C99.1543 26.211 98.7214 25.8646 98.1895 25.6172C97.6576 25.3698 97.0267 25.2461 96.2969 25.2461C95.5918 25.2461 94.9795 25.4069 94.46 25.7285C93.9528 26.0378 93.526 26.4645 93.1797 27.0088C92.8457 27.5531 92.5921 28.1963 92.4189 28.9385C92.2458 29.6683 92.1592 30.46 92.1592 31.3135ZM120.158 36.9727V28.0293C120.158 27.3861 120.053 26.8356 119.843 26.3779C119.632 25.9079 119.305 25.543 118.859 25.2832C118.426 25.0235 117.864 24.8936 117.171 24.8936C116.577 24.8936 116.064 24.9987 115.631 25.209C115.198 25.4069 114.864 25.6976 114.629 26.0811C114.394 26.4522 114.276 26.8913 114.276 27.3985H108.933C108.933 26.5449 109.131 25.7347 109.526 24.9678C109.922 24.2009 110.497 23.5267 111.252 22.9453C112.007 22.3516 112.903 21.8877 113.942 21.5537C114.994 21.2197 116.169 21.0527 117.468 21.0527C119.026 21.0527 120.412 21.3125 121.624 21.832C122.836 22.3516 123.789 23.1309 124.481 24.1699C125.187 25.209 125.539 26.5078 125.539 28.0664V36.6572C125.539 37.7582 125.607 38.6611 125.743 39.3662C125.879 40.0589 126.077 40.6651 126.337 41.1846V41.5H120.938C120.678 40.9557 120.48 40.2754 120.344 39.459C120.22 38.6302 120.158 37.8014 120.158 36.9727ZM120.863 29.2725L120.9 32.2969H117.913C117.208 32.2969 116.596 32.3773 116.076 32.5381C115.557 32.6989 115.13 32.9277 114.796 33.2246C114.462 33.5091 114.215 33.8431 114.054 34.2266C113.905 34.61 113.831 35.0306 113.831 35.4883C113.831 35.946 113.936 36.3604 114.146 36.7315C114.357 37.0902 114.66 37.3747 115.056 37.585C115.451 37.7829 115.915 37.8819 116.447 37.8819C117.251 37.8819 117.95 37.721 118.544 37.3994C119.138 37.0778 119.595 36.682 119.917 36.2119C120.251 35.7419 120.424 35.2966 120.437 34.876L121.847 37.1397C121.649 37.6468 121.377 38.1725 121.03 38.7168C120.696 39.2611 120.27 39.7744 119.75 40.2569C119.23 40.7269 118.606 41.1166 117.876 41.4258C117.146 41.7227 116.28 41.8711 115.278 41.8711C114.004 41.8711 112.848 41.6175 111.809 41.1104C110.782 40.5908 109.965 39.8796 109.359 38.9766C108.766 38.0612 108.469 37.0222 108.469 35.8594C108.469 34.808 108.667 33.874 109.062 33.0576C109.458 32.2412 110.04 31.5547 110.807 30.9981C111.586 30.4291 112.557 30.0023 113.72 29.7178C114.882 29.4209 116.231 29.2725 117.765 29.2725H120.863ZM134.891 25.71V41.5H129.547V21.4238H134.557L134.891 25.71ZM134.111 30.7569H132.664C132.664 29.2725 132.856 27.9365 133.239 26.749C133.623 25.5492 134.161 24.5287 134.854 23.6875C135.546 22.834 136.369 22.1846 137.321 21.7393C138.286 21.2816 139.362 21.0527 140.55 21.0527C141.49 21.0527 142.35 21.1888 143.129 21.461C143.908 21.7331 144.576 22.166 145.133 22.7598C145.702 23.3535 146.135 24.139 146.432 25.1162C146.741 26.0934 146.896 27.2871 146.896 28.6973V41.5H141.515V28.6787C141.515 27.7881 141.391 27.0954 141.144 26.6006C140.896 26.1058 140.531 25.7595 140.049 25.5615C139.579 25.3513 138.997 25.2461 138.305 25.2461C137.587 25.2461 136.963 25.3884 136.431 25.6729C135.911 25.9574 135.478 26.3532 135.132 26.8604C134.798 27.3552 134.544 27.9365 134.371 28.6045C134.198 29.2725 134.111 29.9899 134.111 30.7569ZM156.6 21.4238V41.5H151.237V21.4238H156.6ZM150.903 16.1914C150.903 15.4121 151.175 14.7689 151.72 14.2617C152.264 13.7546 152.994 13.501 153.909 13.501C154.812 13.501 155.536 13.7546 156.08 14.2617C156.637 14.7689 156.915 15.4121 156.915 16.1914C156.915 16.9707 156.637 17.6139 156.08 18.1211C155.536 18.6283 154.812 18.8819 153.909 18.8819C152.994 18.8819 152.264 18.6283 151.72 18.1211C151.175 17.6139 150.903 16.9707 150.903 16.1914ZM169.31 37.6963C169.965 37.6963 170.547 37.5726 171.054 37.3252C171.561 37.0654 171.957 36.7067 172.241 36.249C172.538 35.779 172.693 35.2285 172.705 34.5977H177.733C177.721 36.0078 177.344 37.2634 176.602 38.3643C175.859 39.4528 174.864 40.3125 173.614 40.9434C172.365 41.5619 170.967 41.8711 169.421 41.8711C167.862 41.8711 166.502 41.6113 165.339 41.0918C164.188 40.5723 163.23 39.8548 162.463 38.9395C161.696 38.0117 161.121 36.9356 160.737 35.711C160.354 34.474 160.162 33.1504 160.162 31.7402V31.2022C160.162 29.7796 160.354 28.4561 160.737 27.2315C161.121 25.9945 161.696 24.9183 162.463 24.0029C163.23 23.0752 164.188 22.3516 165.339 21.832C166.489 21.3125 167.838 21.0527 169.384 21.0527C171.029 21.0527 172.47 21.3682 173.707 21.999C174.956 22.6299 175.934 23.5329 176.639 24.708C177.356 25.8708 177.721 27.25 177.733 28.8457H172.705C172.693 28.1777 172.55 27.5716 172.278 27.0274C172.019 26.4831 171.635 26.0501 171.128 25.7285C170.633 25.3945 170.021 25.2276 169.291 25.2276C168.512 25.2276 167.875 25.3945 167.38 25.7285C166.885 26.0501 166.502 26.4955 166.229 27.0645C165.957 27.6211 165.766 28.2582 165.654 28.9756C165.555 29.6807 165.506 30.4229 165.506 31.2022V31.7402C165.506 32.5195 165.555 33.2679 165.654 33.9854C165.753 34.7028 165.939 35.3399 166.211 35.8965C166.495 36.4531 166.885 36.8923 167.38 37.2139C167.875 37.5355 168.518 37.6963 169.31 37.6963ZM186.176 12.9815V41.5H180.832V12.9815H186.176ZM198.83 21.4238L190.109 31.3692L185.434 36.1006L183.485 32.2412L187.196 27.5283L192.41 21.4238H198.83ZM193.282 41.5L187.345 32.2227L191.037 28.9942L199.442 41.5H193.282Z" fill="#274C5B"/>
<path d="M1.85059 42.0684H19.2909H36.7312" stroke="#7EB693" stroke-width="2" stroke-miterlimit="10"/>
<path d="M5.79102 48.5L19.291 48.5L32.791 48.5" stroke="#7EB693" stroke-width="2" stroke-miterlimit="10"/>
<path d="M18.791 1.50002L18.791 8.50002L18.791 15.5" stroke="#7EB693" stroke-width="2" stroke-miterlimit="10"/>
<path d="M18.8657 14.7842V41.2158" stroke="#7EB693" stroke-width="2" stroke-miterlimit="10"/>
<path d="M29.9254 4.55275L18.8657 15.637" stroke="#7EB693" stroke-width="2" stroke-miterlimit="10"/>
<path d="M34.1792 8.81593L18.8657 24.1633" stroke="#7EB693" stroke-width="2" stroke-miterlimit="10"/>
<path d="M36.7314 15.6367L18.8657 32.6894" stroke="#7EB693" stroke-width="2" stroke-miterlimit="10"/>
<path d="M37.5821 23.3106L18.8657 42.0685" stroke="#7EB693" stroke-width="2" stroke-miterlimit="10"/>
<path d="M37.582 31.8369L27.373 42.0685" stroke="#7EB693" stroke-width="2" stroke-miterlimit="10"/>
<path d="M1 31.8369L11.209 42.0685" stroke="#7EB693" stroke-width="2" stroke-miterlimit="10"/>
<path d="M8.65674 4.55275L18.8657 15.637" stroke="#7EB693" stroke-width="2" stroke-miterlimit="10"/>
<path d="M4.40283 8.81593L18.8655 24.1633" stroke="#7EB693" stroke-width="2" stroke-miterlimit="10"/>
<path d="M1.85059 14.7842L18.8655 32.6895" stroke="#7EB693" stroke-width="2" stroke-miterlimit="10"/>
<path d="M1 22.458L18.8657 41.2159" stroke="#7EB693" stroke-width="2" stroke-miterlimit="10"/>
<path d="M19.291 54.8579C9.19019 54.8579 1 46.4056 1 35.9772V20.0228C1 9.5963 9.19019 1.14211 19.291 1.14211C29.3937 1.14211 37.5821 9.5963 37.5821 20.0228V35.9772C37.5839 46.4056 29.3937 54.8579 19.291 54.8579Z" stroke="#7EB693" stroke-width="2" stroke-miterlimit="10"/>
</svg>

<svg width="200" height="56" fill="none" xmlns="http://www.w3.org/2000/svg"><path d="M70.394 27.361v1.28c0 2.054-.278 3.897-.834 5.53-.557 1.633-1.343 3.024-2.357 4.175a10.215 10.215 0 0 1-3.637 2.616c-1.397.606-2.95.91-4.657.91-1.694 0-3.247-.304-4.657-.91a10.438 10.438 0 0 1-3.637-2.616c-1.026-1.15-1.824-2.542-2.393-4.175-.557-1.633-.835-3.476-.835-5.53v-1.28c0-2.065.278-3.909.835-5.529.556-1.633 1.342-3.024 2.356-4.175a10.334 10.334 0 0 1 3.637-2.634c1.41-.607 2.962-.91 4.657-.91 1.707 0 3.26.303 4.657.91a10.115 10.115 0 0 1 3.637 2.634c1.027 1.15 1.818 2.542 2.375 4.175.569 1.62.853 3.464.853 5.53Zm-5.622 1.28v-1.317c0-1.435-.13-2.696-.39-3.785-.259-1.088-.642-2.004-1.15-2.746-.507-.742-1.125-1.299-1.855-1.67-.73-.383-1.565-.575-2.505-.575s-1.775.192-2.505.575c-.717.371-1.33.928-1.837 1.67-.495.742-.872 1.658-1.132 2.746-.26 1.089-.39 2.35-.39 3.785v1.318c0 1.422.13 2.684.39 3.785.26 1.088.644 2.01 1.15 2.764.508.743 1.127 1.305 1.856 1.689.73.383 1.565.575 2.505.575s1.775-.192 2.505-.575c.73-.384 1.342-.946 1.837-1.689.495-.754.872-1.676 1.132-2.764.26-1.101.39-2.363.39-3.785Zm14.64-2.838V41.5h-5.344V21.424h5.029l.315 4.379Zm6.049-4.509-.093 4.954c-.26-.037-.575-.068-.946-.093a9.624 9.624 0 0 0-.983-.055c-.755 0-1.41.099-1.967.296a3.508 3.508 0 0 0-1.373.835c-.36.372-.631.823-.817 1.355a6.653 6.653 0 0 0-.297 1.818l-1.076-.334c0-1.299.13-2.492.39-3.58.26-1.102.637-2.06 1.132-2.877.507-.816 1.125-1.447 1.855-1.892.73-.446 1.565-.668 2.505-.668.297 0 .6.024.91.074.308.037.562.093.76.167Zm14.862.13h4.843v19.408c0 1.83-.408 3.383-1.225 4.657-.804 1.287-1.929 2.258-3.377 2.913-1.447.668-3.13 1.002-5.046 1.002-.842 0-1.732-.111-2.672-.334a10.688 10.688 0 0 1-2.672-1.039 7.06 7.06 0 0 1-2.115-1.781l2.356-3.154a6.658 6.658 0 0 0 2.152 1.67c.817.408 1.72.612 2.71.612.964 0 1.78-.18 2.449-.538a3.561 3.561 0 0 0 1.54-1.54c.358-.668.538-1.478.538-2.43V26.062l.519-4.64Zm-13.508 10.28v-.39c0-1.534.186-2.926.557-4.175.383-1.262.922-2.344 1.614-3.247a7.34 7.34 0 0 1 2.56-2.097c1.003-.495 2.135-.742 3.396-.742 1.336 0 2.456.247 3.359.742s1.645 1.2 2.226 2.115c.582.903 1.033 1.973 1.355 3.21a29.36 29.36 0 0 1 .779 4.026V32a23.723 23.723 0 0 1-.835 3.897c-.371 1.2-.86 2.25-1.466 3.154a6.48 6.48 0 0 1-2.263 2.078c-.89.495-1.955.742-3.192.742s-2.356-.254-3.358-.76a7.502 7.502 0 0 1-2.542-2.134c-.705-.916-1.25-1.992-1.633-3.229-.371-1.237-.557-2.585-.557-4.045Zm5.344-.39v.39c0 .828.08 1.601.241 2.319.161.717.409 1.354.743 1.91.346.545.773.972 1.28 1.28.52.298 1.132.446 1.837.446.977 0 1.775-.204 2.393-.612.619-.42 1.083-.996 1.392-1.726.309-.73.489-1.57.538-2.523v-2.43c-.025-.78-.13-1.479-.315-2.098-.186-.63-.446-1.168-.78-1.614a3.367 3.367 0 0 0-1.299-1.039c-.531-.247-1.162-.37-1.892-.37-.705 0-1.317.16-1.837.482-.507.309-.934.736-1.28 1.28-.334.544-.588 1.187-.761 1.93a10.28 10.28 0 0 0-.26 2.375Zm27.999 5.659v-8.944c0-.643-.105-1.193-.315-1.651a2.35 2.35 0 0 0-.984-1.095c-.433-.26-.995-.39-1.688-.39-.594 0-1.107.106-1.54.316a2.229 2.229 0 0 0-1.002.872c-.235.371-.353.81-.353 1.317h-5.343c0-.853.198-1.663.593-2.43.396-.767.971-1.441 1.726-2.023.755-.593 1.651-1.057 2.69-1.391 1.052-.334 2.227-.501 3.526-.501 1.558 0 2.944.26 4.156.779 1.212.52 2.165 1.299 2.857 2.338.706 1.039 1.058 2.338 1.058 3.896v8.591c0 1.101.068 2.004.204 2.71.136.692.334 1.298.594 1.818v.315h-5.399c-.26-.544-.458-1.225-.594-2.041a16.781 16.781 0 0 1-.186-2.486Zm.705-7.7.037 3.024h-2.987c-.705 0-1.317.08-1.837.241-.519.16-.946.39-1.28.687a2.654 2.654 0 0 0-.742 1.002 3.455 3.455 0 0 0-.223 1.261c0 .458.105.872.315 1.243.211.36.514.644.91.854.395.198.859.297 1.391.297.804 0 1.503-.161 2.097-.483.594-.321 1.051-.717 1.373-1.187.334-.47.507-.915.52-1.336l1.41 2.264a9.134 9.134 0 0 1-.817 1.577 7.352 7.352 0 0 1-1.28 1.54c-.52.47-1.144.86-1.874 1.169-.73.297-1.596.445-2.598.445-1.274 0-2.43-.254-3.469-.76-1.027-.52-1.844-1.231-2.45-2.134-.593-.916-.89-1.955-.89-3.118 0-1.051.198-1.985.593-2.801a5.47 5.47 0 0 1 1.745-2.06c.779-.569 1.75-.996 2.913-1.28 1.162-.297 2.511-.445 4.045-.445h3.098Zm14.028-3.563V41.5h-5.344V21.424h5.01l.334 4.286Zm-.78 5.047h-1.447c0-1.485.192-2.82.575-4.008.384-1.2.922-2.22 1.615-3.061a6.93 6.93 0 0 1 2.467-1.949c.965-.457 2.041-.686 3.229-.686.94 0 1.8.136 2.579.408a4.939 4.939 0 0 1 2.004 1.299c.569.593 1.002 1.379 1.299 2.356.309.977.464 2.171.464 3.581V41.5h-5.381V28.679c0-.89-.124-1.584-.371-2.078-.248-.495-.613-.841-1.095-1.04-.47-.21-1.052-.315-1.744-.315-.718 0-1.342.142-1.874.427-.52.284-.953.68-1.299 1.187a5.6 5.6 0 0 0-.761 1.745 8.561 8.561 0 0 0-.26 2.152Zm22.489-9.333V41.5h-5.363V21.424h5.363Zm-5.697-5.233c0-.779.272-1.422.817-1.93.544-.506 1.274-.76 2.189-.76.903 0 1.627.254 2.171.76.557.508.835 1.151.835 1.93 0 .78-.278 1.423-.835 1.93-.544.507-1.268.76-2.171.76-.915 0-1.645-.253-2.189-.76-.545-.507-.817-1.15-.817-1.93Zm18.407 21.505c.655 0 1.237-.123 1.744-.37.507-.26.903-.62 1.187-1.077.297-.47.452-1.02.464-1.651h5.028c-.012 1.41-.389 2.665-1.131 3.766-.743 1.089-1.738 1.949-2.988 2.58-1.249.618-2.647.927-4.193.927-1.559 0-2.919-.26-4.082-.78-1.151-.519-2.109-1.236-2.876-2.151-.767-.928-1.342-2.004-1.726-3.229-.383-1.237-.575-2.56-.575-3.97v-.539c0-1.422.192-2.746.575-3.97.384-1.238.959-2.314 1.726-3.23a7.873 7.873 0 0 1 2.876-2.17c1.15-.52 2.499-.78 4.045-.78 1.645 0 3.086.316 4.323.947a7.052 7.052 0 0 1 2.932 2.709c.717 1.163 1.082 2.542 1.094 4.138h-5.028a4.182 4.182 0 0 0-.427-1.819 3.072 3.072 0 0 0-1.15-1.299c-.495-.334-1.107-.5-1.837-.5-.779 0-1.416.166-1.911.5a3.205 3.205 0 0 0-1.151 1.336 6.68 6.68 0 0 0-.575 1.912 16.017 16.017 0 0 0-.148 2.226v.538c0 .78.049 1.528.148 2.245.099.718.285 1.355.557 1.912.284.556.674.995 1.169 1.317.495.322 1.138.482 1.93.482Zm16.866-24.714V41.5h-5.344V12.982h5.344Zm12.654 8.442-8.721 9.945-4.675 4.732-1.949-3.86 3.711-4.713 5.214-6.104h6.42ZM193.282 41.5l-5.937-9.277 3.692-3.229 8.405 12.506h-6.16Z" fill="#274C5B"/><path d="M1.85 42.068h34.881M5.791 48.5h27M18.791 1.5v14M18.866 14.784v26.432M29.925 4.553l-11.06 11.084M34.18 8.816 18.865 24.163M36.731 15.637 18.866 32.689M37.582 23.31 18.866 42.07M37.582 31.837 27.373 42.069M1 31.837l10.209 10.232M8.657 4.553l10.209 11.084M4.403 8.816l14.463 15.347M1.85 14.784 18.866 32.69M1 22.458l17.866 18.758M19.291 54.858C9.191 54.858 1 46.406 1 35.978V20.022C1 9.596 9.19 1.143 19.291 1.143c10.103 0 18.291 8.453 18.291 18.88v15.954c.002 10.429-8.188 18.88-18.291 18.88Z" stroke="#7EB693" stroke-width="2" stroke-miterlimit="10"/></svg>
